u/stations/toyo/symbols/TR/TR03.svg

<?xml version="1.0" encoding="UTF-8"?>
<svg xmlns="http://www.w3.org/2000/svg" xmlns:xlink="http://www.w3.org/1999/xlink" width="75" height="75" viewBox="0 0 75 75">
<defs>
<clipPath id="clip-0">
<path clip-rule="nonzero" d="M 2 1 L 19 1 L 19 22.75 L 2 22.75 Z M 2 1 "/>
</clipPath>
<clipPath id="clip-1">
<path clip-rule="nonzero" d="M 20 1 L 37 1 L 37 22.75 L 20 22.75 Z M 20 1 "/>
</clipPath>
<clipPath id="clip-2">
<rect x="0" y="0" width="39" height="23"/>
</clipPath>
<g id="source-6" clip-path="url(#clip-2)">
<g clip-path="url(#clip-0)">
<path fill-rule="nonzero" fill="rgb(0%, 0%, 0%)" fill-opacity="1" d="M 8.53125 4.449219 L 2.757812 4.449219 L 2.757812 1.089844 L 18.632812 1.089844 L 18.632812 4.449219 L 12.765625 4.449219 L 12.765625 22.324219 L 8.53125 22.324219 Z M 8.53125 4.449219 "/>
</g>
<g clip-path="url(#clip-1)">
<path fill-rule="nonzero" fill="rgb(0%, 0%, 0%)" fill-opacity="1" d="M 20.847656 1.089844 C 25.273438 1.089844 25.273438 1.089844 25.273438 1.089844 C 29.699219 1.089844 34.992188 0.992188 34.992188 6.917969 C 34.992188 9.386719 33.355469 11.363281 30.757812 11.757812 C 31.914062 11.855469 32.585938 13.042969 32.972656 13.929688 C 36.242188 22.324219 36.242188 22.324219 36.242188 22.324219 C 31.625 22.324219 31.625 22.324219 31.625 22.324219 C 29.21875 15.609375 29.21875 15.609375 29.21875 15.609375 C 28.546875 14.128906 28.0625 13.4375 26.332031 13.4375 C 24.984375 13.4375 24.984375 13.4375 24.984375 13.4375 C 24.984375 22.324219 24.984375 22.324219 24.984375 22.324219 C 20.847656 22.324219 20.847656 22.324219 20.847656 22.324219 Z M 24.984375 10.078125 C 26.332031 10.078125 26.332031 10.078125 26.332031 10.078125 C 28.351562 10.078125 30.660156 9.78125 30.660156 7.214844 C 30.660156 4.746094 28.351562 4.449219 26.332031 4.449219 C 24.984375 4.449219 24.984375 4.449219 24.984375 4.449219 Z M 24.984375 10.078125 "/>
</g>
</g>
<clipPath id="clip-3">
<path clip-rule="nonzero" d="M 2 0.847656 L 21 0.847656 L 21 26.851562 L 2 26.851562 Z M 2 0.847656 "/>
</clipPath>
<clipPath id="clip-4">
<path clip-rule="nonzero" d="M 22 0.847656 L 39 0.847656 L 39 26.851562 L 22 26.851562 Z M 22 0.847656 "/>
</clipPath>
<clipPath id="clip-5">
<rect x="0" y="0" width="41" height="27"/>
</clipPath>
<g id="source-9" clip-path="url(#clip-5)">
<g clip-path="url(#clip-3)">
<path fill-rule="nonzero" fill="rgb(0%, 0%, 0%)" fill-opacity="1" d="M 2.566406 13.921875 C 2.566406 7.621094 4.472656 0.847656 11.285156 0.847656 C 18.628906 0.847656 20.066406 8.085938 20.066406 13.921875 C 20.066406 19.757812 18.554688 26.851562 11.285156 26.851562 C 3.542969 26.851562 2.566406 19.179688 2.566406 13.921875 M 15.027344 13.921875 C 15.027344 10.679688 15.027344 4.59375 11.285156 4.59375 C 7.609375 4.59375 7.609375 10.679688 7.609375 13.921875 C 7.609375 17.09375 7.574219 23.105469 11.285156 23.105469 C 15.0625 23.105469 15.027344 17.09375 15.027344 13.921875 Z M 15.027344 13.921875 "/>
</g>
<g clip-path="url(#clip-4)">
<path fill-rule="nonzero" fill="rgb(0%, 0%, 0%)" fill-opacity="1" d="M 22.515625 21.738281 C 24.242188 22.417969 26.117188 22.886719 28.101562 22.886719 C 30.183594 22.886719 33.390625 21.878906 33.390625 19.324219 C 33.390625 16.371094 31.050781 15.398438 27.84375 15.398438 L 25.394531 15.398438 L 25.394531 11.4375 L 27.703125 11.4375 C 31.085938 11.4375 33.285156 10.320312 33.285156 8.121094 C 33.285156 5.601562 31.230469 4.808594 28.957031 4.808594 C 26.980469 4.808594 25.070312 5.277344 23.308594 6.140625 L 23.023438 2.109375 C 25.035156 1.316406 27.449219 0.847656 30.042969 0.847656 C 33.136719 0.847656 38.324219 1.925781 38.324219 7.296875 C 38.324219 10.714844 36.199219 12.335938 33.644531 13.3125 L 33.644531 13.382812 C 36.851562 13.816406 38.433594 16.296875 38.433594 19.359375 C 38.433594 25.335938 32.996094 26.851562 28.816406 26.851562 C 26.621094 26.851562 24.097656 26.558594 22.226562 26.023438 L 22.515625 21.738281 "/>
</g>
</g>
<clipPath id="clip-6">
<rect x="0" y="0" width="75" height="75"/>
</clipPath>
<g id="source-11" clip-path="url(#clip-6)">
<path fill-rule="nonzero" fill="rgb(55.291748%, 80.39093%, 41.96167%)" fill-opacity="1" d="M 75 37.5 C 75 16.789062 58.210938 0 37.5 0 C 16.789062 0 0 16.789062 0 37.5 C 0 58.210938 16.789062 75 37.5 75 C 58.210938 75 75 58.210938 75 37.5 Z M 75 37.5 "/>
<path fill-rule="nonzero" fill="rgb(100%, 100%, 100%)" fill-opacity="1" d="M 70.601562 37.5 C 70.601562 19.21875 55.78125 4.398438 37.5 4.398438 C 19.21875 4.398438 4.402344 19.21875 4.402344 37.5 C 4.402344 55.78125 19.21875 70.601562 37.5 70.601562 C 55.78125 70.601562 70.601562 55.78125 70.601562 37.5 Z M 70.601562 37.5 "/>
<use xlink:href="#source-6" transform="matrix(1, 0, 0, 1, 18, 10)"/>
<use xlink:href="#source-9" transform="matrix(1, 0, 0, 1, 17, 38)"/>
</g>
</defs>
<use xlink:href="#source-11"/>
</svg>

<svg xmlns="http://www.w3.org/2000/svg" xmlns:xlink="http://www.w3.org/1999/xlink" width="75" height="75"><defs><clipPath id="b"><path d="M2 1h17v21.75H2Zm0 0"/></clipPath><clipPath id="c"><path d="M20 1h17v21.75H20Zm0 0"/></clipPath><clipPath id="a"><path d="M0 0h39v23H0z"/></clipPath><clipPath id="e"><path d="M2 .848h19v26.004H2Zm0 0"/></clipPath><clipPath id="f"><path d="M22 .848h17v26.004H22Zm0 0"/></clipPath><clipPath id="d"><path d="M0 0h41v27H0z"/></clipPath><clipPath id="g"><path d="M0 0h75v75H0z"/></clipPath><g id="h" clip-path="url(#a)"><g clip-path="url(#b)"><path d="M8.531 4.45H2.758V1.09h15.875v3.36h-5.867v17.874H8.53Zm0 0"/></g><g clip-path="url(#c)"><path d="M20.848 1.09h4.425c4.426 0 9.72-.098 9.72 5.828 0 2.469-1.638 4.445-4.235 4.84 1.156.097 1.828 1.285 2.215 2.172l3.27 8.394h-4.618l-2.406-6.715c-.672-1.48-1.157-2.171-2.887-2.171h-1.348v8.886h-4.136Zm4.136 8.988h1.348c2.02 0 4.328-.297 4.328-2.863 0-2.469-2.308-2.766-4.328-2.766h-1.348Zm0 0"/></g></g><g id="i" clip-path="url(#d)"><g clip-path="url(#e)"><path d="M2.566 13.922c0-6.3 1.907-13.074 8.72-13.074 7.343 0 8.78 7.238 8.78 13.074 0 5.836-1.511 12.93-8.78 12.93-7.743 0-8.72-7.672-8.72-12.93m12.461 0c0-3.242 0-9.328-3.742-9.328-3.676 0-3.676 6.086-3.676 9.328 0 3.172-.035 9.183 3.676 9.183 3.778 0 3.742-6.011 3.742-9.183Zm0 0"/></g><g clip-path="url(#f)"><path d="M22.516 21.738c1.726.68 3.601 1.149 5.586 1.149 2.082 0 5.289-1.008 5.289-3.563 0-2.953-2.34-3.926-5.547-3.926h-2.45v-3.96h2.31c3.382 0 5.581-1.118 5.581-3.317 0-2.52-2.055-3.312-4.328-3.312-1.977 0-3.887.468-5.648 1.332l-.286-4.032c2.012-.793 4.426-1.261 7.02-1.261 3.094 0 8.281 1.078 8.281 6.449 0 3.418-2.125 5.039-4.68 6.016v.07c3.208.433 4.79 2.914 4.79 5.976 0 5.977-5.438 7.493-9.618 7.493-2.195 0-4.718-.293-6.59-.829l.29-4.285"/></g></g><g id="j" clip-path="url(#g)"><path fill="#8DCD6B" d="M75 37.5C75 16.79 58.21 0 37.5 0S0 16.79 0 37.5 16.79 75 37.5 75 75 58.21 75 37.5Zm0 0"/><path fill="#FFF" d="M70.602 37.5c0-18.281-14.82-33.102-33.102-33.102-18.281 0-33.098 14.82-33.098 33.102 0 18.281 14.817 33.102 33.098 33.102S70.602 55.782 70.602 37.5Zm0 0"/><use xlink:href="#h" transform="translate(18 10)"/><use xlink:href="#i" transform="translate(17 38)"/></g></defs><use xlink:href="#j"/></svg>
